X: 9164
T: Dalaigh's
R: polka
M: 2/4
K: Edorian
|:F/A/|BE FE|B/c/B/A/ FA|BE G/F/E|D>E FA|
BE FE|BE F>E|DD/E/ F/G/A|FE E:|
|:F/A/|B>^A Bc|d>e dc|BA B/c/d|ef/e/ dc|
B/c/B/A/ Bc|d/e/d/c/ d>B|AF dF|E2- E:|

